assets/assets/images/icons/icon-external.svg

<?xml version="1.0" encoding="UTF-8"?>
<svg width="13px" height="13px" viewBox="0 0 13 13" version="1.1" xmlns="http://www.w3.org/2000/svg" xmlns:xlink="http://www.w3.org/1999/xlink">
    <!-- Generator: Sketch 47.1 (45422) - http://www.bohemiancoding.com/sketch -->
    <title>external</title>
    <desc>Created with Sketch.</desc>
    <defs></defs>
    <g id="site" stroke="none" stroke-width="1" fill="none" fill-rule="evenodd">
        <g id="news" transform="translate(-530.000000, -147.000000)" fill-rule="nonzero" fill="#000000">
            <g id="news-list" transform="translate(0.000000, 108.000000)">
                <g id="1-10" transform="translate(250.000000, 0.000000)">
                    <g id="1" transform="translate(18.000000, 0.000000)">
                        <g id="external" transform="translate(262.000000, 39.000000)">
                            <path d="M2.44705882,12.6367647 L9.32941176,12.6367647 L9.32941176,12.6367647 C10.5911765,12.6367647 11.6235294,11.6044118 11.6235294,10.3426471 L11.6235294,6.13676471 C11.6235294,5.92647059 11.4514706,5.75441176 11.2411765,5.75441176 L11.2411765,5.75441176 C11.0308824,5.75441176 10.8588235,5.92647059 10.8588235,6.13676471 L10.8588235,10.3426471 C10.8588235,11.1838235 10.1705882,11.8720588 9.32941176,11.8720588 L9.32941176,11.8720588 L2.44705882,11.8720588 C1.60588235,11.8720588 0.917647059,11.1838235 0.917647059,10.3426471 L0.917647059,3.46029412 C0.917647059,2.61911765 1.60588235,1.93088235 2.44705882,1.93088235 L2.44705882,1.93088235 L6.65294118,1.93088235 L6.65294118,1.93088235 C6.86323529,1.93088235 7.03529412,1.75882353 7.03529412,1.54852941 C7.03529412,1.33823529 6.86323529,1.16617647 6.65294118,1.16617647 L2.44705882,1.16617647 L2.44705882,1.16617647 C1.18529412,1.16617647 0.152941176,2.19852941 0.152941176,3.46029412 L0.152941176,10.3426471 C0.152941176,11.6044118 1.18529412,12.6367647 2.44705882,12.6367647 Z" id="Shape"></path>
                            <path d="M12.8470588,3.86176471 L12.8470588,0.363235294 C12.8470588,0.344117647 12.8470588,0.305882353 12.8470588,0.286764706 C12.8470588,0.248529412 12.8470588,0.229411765 12.8279412,0.210294118 L12.8088235,0.191176471 C12.8088235,0.172058824 12.7897059,0.152941176 12.7897059,0.152941176 C12.7705882,0.114705882 12.7323529,0.0764705882 12.675,0.0382352941 C12.6558824,0.0191176471 12.6367647,0.0191176471 12.6176471,0.0191176471 L12.5602941,0 C12.5220588,0 12.4838235,0 12.4647059,0 L8.96617647,0 C8.75588235,0 8.58382353,0.172058824 8.58382353,0.382352941 C8.58382353,0.592647059 8.75588235,0.764705882 8.96617647,0.764705882 L11.5470588,0.764705882 L5.94558824,6.32794118 C5.79264706,6.48088235 5.79264706,6.71029412 5.94558824,6.86323529 C6.09852941,7.01617647 6.32794118,7.01617647 6.48088235,6.86323529 L12.0823529,1.28088235 L12.0823529,3.86176471 C12.0823529,4.07205882 12.2544118,4.24411765 12.4647059,4.24411765 C12.675,4.24411765 12.8470588,4.07205882 12.8470588,3.86176471 Z" id="Shape"></path>
                        </g>
                    </g>
                </g>
            </g>
        </g>
    </g>
</svg>

<svg width="13" height="13" xmlns="http://www.w3.org/2000/svg"><g fill-rule="nonzero" fill="#000"><path d="M2.44705882 12.6367647h6.88235294c1.26176474 0 2.29411764-1.0323529 2.29411764-2.2941176V6.13676471c0-.21029412-.1720588-.38235295-.3823529-.38235295-.2102941 0-.382353.17205883-.382353.38235295v4.20588239c0 .8411764-.6882353 1.5294117-1.52941174 1.5294117H2.44705882c-.84117647 0-1.52941176-.6882353-1.52941176-1.5294117V3.46029412c0-.84117647.68823529-1.52941177 1.52941176-1.52941177h4.20588236c.21029411 0 .38235294-.17205882.38235294-.38235294 0-.21029412-.17205883-.38235294-.38235294-.38235294H2.44705882c-1.2617647 0-2.29411764 1.03235294-2.29411764 2.29411765v6.88235298c0 1.2617647 1.03235294 2.2941176 2.29411764 2.2941176z"/><path d="M12.8470588 3.86176471V.36323529.28676471c0-.0382353 0-.05735294-.0191176-.0764706l-.0191177-.01911764c0-.01911765-.0191176-.0382353-.0191176-.0382353C12.7705882.11470589 12.7323529.0764706 12.675.0382353c-.0191176-.01911764-.0382353-.01911764-.0573529-.01911764L12.5602941 0H8.96617647c-.21029412 0-.38235294.17205882-.38235294.38235294 0 .21029412.17205882.38235294.38235294.38235294h2.58088233l-5.60147056 5.5632353c-.15294118.15294117-.15294118.38235294 0 .53529411.15294117.15294118.38235294.15294118.53529411 0l5.60147055-5.58235294v2.58088236c0 .21029411.1720589.38235294.382353.38235294s.3823529-.17205883.3823529-.38235294z"/></g></svg>
